public/assets/TextLogoNews.svg

<svg xmlns="http://www.w3.org/2000/svg" width="477" height="164" fill="none"><path fill="#FAAE6C" d="m447 82-123 71.014V10.986L447 82Z"/><path stroke="#FAAE6C" stroke-width="5" d="M356.5 15.316 472 82l-115.5 66.684V15.316Z"/><path fill="#013D71" d="M76.544 37.528h17.92L78.72 127H60.672L31.104 65.688 20.224 127H2.176l15.872-89.472h17.92l29.696 61.44 10.88-61.44Zm87.469 0-2.432 14.08h-33.92l-4.096 23.168h30.08L151.213 88.6h-30.08l-4.224 24.192h33.92L148.269 127H96.301l15.872-89.472h51.84Zm18.589 89.6-8.32-89.472h19.2l3.584 69.376 30.336-69.376h19.968l4.864 68.992 28.16-68.992h19.328L258.89 127h-21.12l-5.504-63.616L203.594 127l-20.992.128ZM363.135 101.4c0 15.36-13.184 26.496-33.664 26.496-18.56 0-32.64-9.344-30.464-26.624h18.304c-.64 7.04 3.968 12.288 12.8 12.288 8.448 0 14.08-3.584 14.08-10.624 0-16.128-39.68-11.904-40.192-38.784-.256-17.28 13.952-27.776 33.152-27.776 19.072 0 31.104 9.984 29.952 25.472h-19.072c.768-6.144-3.456-11.008-11.776-11.008-7.936 0-13.44 3.968-13.44 10.496 0 15.616 40.32 13.312 40.32 40.064Z"/></svg>

<svg width="477" height="164" viewBox="0 0 477 164" fill="none" xmlns="http://www.w3.org/2000/svg">
<path d="M447 82L324 153.014L324 10.9859L447 82Z" fill="#FAAE6C"/>
<path d="M356.5 15.316L472 82L356.5 148.684L356.5 15.316Z" stroke="#FAAE6C" stroke-width="5"/>
<path d="M76.544 37.528H94.464L78.72 127H60.672L31.104 65.688L20.224 127H2.176L18.048 37.528H35.968L65.664 98.968L76.544 37.528ZM164.013 37.528L161.581 51.608H127.661L123.565 74.776H153.645L151.213 88.6H121.133L116.909 112.792H150.829L148.269 127H96.301L112.173 37.528H164.013ZM182.602 127.128L174.282 37.656H193.482L197.066 107.032L227.402 37.656H247.37L252.234 106.648L280.394 37.656H299.722L258.89 127H237.77L232.266 63.384L203.594 127L182.602 127.128ZM363.135 101.4C363.135 116.76 349.951 127.896 329.471 127.896C310.911 127.896 296.831 118.552 299.007 101.272H317.311C316.671 108.312 321.279 113.56 330.111 113.56C338.559 113.56 344.191 109.976 344.191 102.936C344.191 86.808 304.511 91.032 303.999 64.152C303.743 46.872 317.951 36.376 337.151 36.376C356.223 36.376 368.255 46.36 367.103 61.848H348.031C348.799 55.704 344.575 50.84 336.255 50.84C328.319 50.84 322.815 54.808 322.815 61.336C322.815 76.952 363.135 74.648 363.135 101.4Z" fill="#013D71"/>
</svg>
